!!!OTL: 2050. Marien Traum.
!!!ODT: 1602
!!!ARE: Europa, Mitteleuropa, Deutschland
!!!SCT: E2050
!!!TXL: @@DE
!!!YEM: Copyright 1995, estate of Helmut Schaffrath.
**kern	**text
*ICvox	*
*M4/4	*
*met(c)	*
*k[]	*
*a:	*
!LO:TX:a:t=Beuttner 1602, Nr. 30.	!
{4cc	1._Und
=1	=1
4cc	un-
4dd	-ſer
4cc	lie-
4b	-ben
=2	=2
2a	Frau-
4g}	-en
{4g	der
=3	=3
4cc	trau-
4cc	-met
4dd	ihr
4ff	ein
=4	=4
2ee	Traum,
4r}	.
{4dd	wie
=5	=5
4ee	un-
4ee	-ter
4gg	ih-
4f	-rem
=6	=6
(4ee	Her-
4gg)	.
4ff}	-ʒen
{4ee	ge-
=7	=7
4dd	-wach-
4cc	-ſen
4ee	wär
4cc	ein
=8	=8
(<4a	Baum.
4b/	.
2cc)}	.
=9||	=9||
{2g	Ky-
4a	-ri-
4a	-e-
=10	=10
1b	-lei-
=11	=11
1a;}	-ſon!
==	==
!!!Ag: geistlich, Marien - Lied, Legende
!!!ONB: ESAC (Essen Associative Code) Database: ERK3
!!!AMT: simple quadruple
!!!AIN: vox
!!!EED: Helmut Schaffrath
!!!EEV: 1.0
!!!GTL: 4. Katholische Lieder: b) Marienlieder (Rufe und Legenden.)
!!!URL-scan: https://rosdok.uni-rostock.de/mcrviewer/recordIdentifier/rosdok_ppn745177999/iview2/phys_0753.iview2?x=167.1926188250859&y=1421.4025057982653&scale=0.7014306698522891&rotation=0&layout=singlePageLayout
!!!ENC: Anna Maria Matuszewska
!!!EEV: 2025/13/01
*-	*-
